X: 05001
T: ALL OVER THE FLOOR
C: Bob McQuillen 21 Jan 81
B: Bob's Note Book 05 #1
%R: jig
Z: 2020 John Chambers <jc:trillian.mit.edu>
M: 6/8
L: 1/8
K: C
AG \
| FDG ECE | GcG EGA | GEG cGE | FEF DB,G, |\
| CG,C ECE | GcG EGc | ded cBc | Adc B :|
|: cd \
| ede cGE | FGA GEC | ede cBc | Adc BAG |\
| AFA GEG | cBc dBG | ecA GEG | FGA G :|
%%begintext align
%% You'll just have to ask
%% April Limber.
%%endtext

%%sep 1 1 500

%%sep 1 1 500

